X: 3
T: The Star Of The County Down
R: barndance
M: 4/4
L: 1/8
K: Amin
M: 3/4
E2G2|:A4AB|A3GA2|c4c2|d3cd2|e2d2c2|A2G2E2|G6-|G2c2B2|
|A4AB|A3GA2|c4c2|d3cd2|e2d2c2|A4G2|A6-|1 A2E2G2:|2 A4e2||
|:g4e2|e3dc2|d6|d4cd|e3dc2|A2G2E2|G6-|G2c2B2|
|A4AB|A3GA2|c4c2|d3cd2|e2d2c2|A4G2|A6-|1 A4e2:|2 A6||


Tune 4320	Setting 4320

